X: 10015
T: BO'S BREAKDOWN
C: Bob McQuillen 12 May 93
B: Bob's Note Book 10 #15
%R: reel
Z: 2021 John Chambers <jc:trillian.mit.edu>
M: C
L: 1/8
K: G
|:GABG AGBG | DEGB AGED | GABG AGBd | egdB AGED |
| GABG AGBG | BdBG AGED | GABG Bdge | dedB AGEG :|
|:DEGA Bdge | degb ageg | b3g  a4   | gedB AGEG |
| DEGA Bdeg | degb ageg | b2gb aged | gedB AGEG :|
%%begintext align
%% In Book 8 it says that Bo
%% Bradham is from North Carolina. Well, that's a big fat lie, whoever
%% wrote that in there! He's from SOUTH Carolina, and the worst of it (as far
%% as we up here are concerned) is that he and Kim have moved back Down
%% South again. I sure miss your fiddling, Bo, and I know this tune isn't
%% all that great, but you can try it and see what you think - Best wishes
%% always to you both - Come back and see us, y'hear?
%%endtext

%%sep 1 1 500

%%sep 1 1 500

